images_breeze_svg/cmd/32/pagemargin.svg

<svg height="32" viewBox="0 0 32 32" width="32" xmlns="http://www.w3.org/2000/svg"><g stroke-width="1.33333"><path d="m7 4v1 22.99994l1 .00006 17-.00006v-23.99994l-17 .00006zm1 1.00006h16v21.99994h-16z" fill="#4d4d4d"/><path d="m10.99999 5v2.99999l-2.99999.00006v.99995l2.99999-.00006v14l-2.99999.00006v1.00001l2.99999-.00006v2.99999h1.00001v-2.99999h8v2.99999h1v-2.99999l3 .00006v-1.00001l-3-.00006v-14l3 .00006v-.99995l-3-.00006v-2.99999h-1v2.99999h-8v-2.99999zm1.00001 3.99994h8v14h-8z" fill="#1d99f3"/></g></svg>

<?xml version="1.0" encoding="UTF-8" standalone="no"?>
<svg
   xmlns:dc="http://purl.org/dc/elements/1.1/"
   xmlns:cc="http://creativecommons.org/ns#"
   xmlns:rdf="http://www.w3.org/1999/02/22-rdf-syntax-ns#"
   xmlns:svg="http://www.w3.org/2000/svg"
   xmlns="http://www.w3.org/2000/svg"
   xmlns:sodipodi="http://sodipodi.sourceforge.net/DTD/sodipodi-0.dtd"
   xmlns:inkscape="http://www.inkscape.org/namespaces/inkscape"
   viewBox="0 0 32 32"
   version="1.1"
   id="svg6"
   sodipodi:docname="pagemargin.svg"
   width="32"
   height="32"
   inkscape:version="0.92.4 (unknown)"
   inkscape:export-filename="/home/rizmut/Dokumen/Rizmut/Github/libreoffice-style-breeze/images_breeze/cmd/32/pagemargin.png"
   inkscape:export-xdpi="96"
   inkscape:export-ydpi="96">
  <metadata
     id="metadata12">
    <rdf:RDF>
      <cc:Work
         rdf:about="">
        <dc:format>image/svg+xml</dc:format>
        <dc:type
           rdf:resource="http://purl.org/dc/dcmitype/StillImage" />
        <dc:title></dc:title>
      </cc:Work>
    </rdf:RDF>
  </metadata>
  <defs
     id="defs10" />
  <sodipodi:namedview
     pagecolor="#ffffff"
     bordercolor="#666666"
     borderopacity="1"
     objecttolerance="10"
     gridtolerance="10"
     guidetolerance="10"
     inkscape:pageopacity="0"
     inkscape:pageshadow="2"
     inkscape:window-width="1360"
     inkscape:window-height="714"
     id="namedview8"
     showgrid="true"
     inkscape:zoom="13.906433"
     inkscape:cx="22.708389"
     inkscape:cy="10.474653"
     inkscape:window-x="0"
     inkscape:window-y="28"
     inkscape:window-maximized="1"
     inkscape:current-layer="svg6">
    <inkscape:grid
       type="xygrid"
       id="grid822" />
  </sodipodi:namedview>
  <path
     d="m 7,4 v 1 22.99994 l 1,6e-5 17,-6e-5 V 4 l -17,6e-5 z M 8,5.00006 H 24 V 27 H 8 Z"
     id="path2"
     inkscape:connector-curvature="0"
     style="fill:#4d4d4d;stroke-width:1.33333004"
     sodipodi:nodetypes="ccccccccccccc" />
  <path
     d="M 10.99999,5 V 7.99999 L 8,8.00005 V 9 l 2.99999,-6e-5 v 14 L 8,23 v 1.00001 l 2.99999,-6e-5 v 2.99999 H 12 v -2.99999 h 8 v 2.99999 h 1 v -2.99999 l 3,6e-5 V 23 l -3,-6e-5 v -14 L 24,9 V 8.00005 l -3,-6e-5 V 5 H 20 V 7.99999 H 12 V 5 Z M 12,8.99994 h 8 v 14 h -8 z"
     id="path4"
     inkscape:connector-curvature="0"
     style="fill:#1d99f3;stroke-width:1.33333004"
     sodipodi:nodetypes="cccccccccccccccccccccccccccccccccc" />
</svg>
